X:1
T: Biddy Maloney
C:
R:Jig
Q:180
K:D
M:6/8
L:1/16
|:AG|F2G2A2 A2F2A2|A2F2A2 A2F2A2|B2G2G2 A2G2F2|B2G2E2 E2G2E2|F2G2A2 A2F2A2|A2F2A2 d4A2|Bcd2B2 A2F2d2|A2F2D2 D4:|
|:cd|e2c2A2 A2c2A2|e2c2A2 d4A2|G2B2G2 F2G2A2|B2G2E2 E4cd|e2c2A2 d2f2a2|g2f2e2 d4A2|d2c2B2 A2F2d2|A2F2D2 D4:|
|:fg|a6 g6|f2e2d2 c2B2A2|G2B2G2 F2G2A2|B2G2E2 E4fg|a2g2f2 g2b2g2|f2e2d2 c2B2A2|d2c2B2 A2F2d2|A2F2D2 D4:|
|:fg|a2fgaf d2f2g2|a2fgaf d2g2a2|b2gabg e2g2a2|c'2gabg e2f2g2|a2fgaf b2g2g2|a2fgaf d4A2|Bcd2B2 A2F2d2|A2F2D2 D4:|
|:A2|ded2c2 d2A2F2|ded2c2 d2A2F2|G2B2G2 F2G2A2|B2G2E2 E4A2|ded2c2 d2A2F2|ded2c2 d2A2F2|d2c2d2 e2f2g2|f2e2e2 e4:|
|:g2|fga2b2 a2f2d2|f2d2fg a2f2d2|g4e2 f4d2|e2f2e2 e2f2g2|fga2b2 a2f2d2|fdf2g2 a2f2d2|ded2c2 d2A2F2|d2c2d2 e2f2g2|f2d2d2 d4:|
|:g2|f2d2f2 e2c2e2|d2c2B2 A2G2F2|G2B2G2 F2G2A2|B2G2E2 E4g2|f2d2f2 e2c2e2|d2c2B2 A2G2F2|Bcd2B2 A2F2d2|A2F2D2 D4:|
